X:1
T:Title
%%score 1 2 3
L:1/8
M:2/2
K:C
V:1 treble nm="Part_1"
V:2 treble-8 nm="Part_2"
V:3 treble-8 nm="Part_3"
V:1
 E8 | F8- | F8 | F4 E4 | D6 C2 | C8 | D8 | E4 F4- | F4 D4- | D4 F4- | F2 E2 E4- | E4 D4 | E8 | z8 | %14
 F8 | F4 E4 | D8 | C8 | F8 | G8 | F4 D4- | D4 E4- | E2 C2 D4 | E4 F4- | F2 E2 E4- | E4 D4 | E8 | %27
 z8 | G8 | A8 | c8 | A4 G4- | G2 F2 E4- | E4 F4 | D4 C4 | F4 G4 | F4 E4- | E4 z4 | F4 E4- | E4 D4 | %40
 E8 | z8 | G8 | D8 | E4 C4- | C4 D4- | D4 D4- | D4 F4- | F4 D4- | D4 z4 | G4 F4- | F2 E2 E4- | %52
 E4 D4 | E4 F4 | G8 | D8 | C8 | F8 | E8 | D4 E4 | C4 D4 | E4 E4- | E4 D4 | E8 | z8 | F8 | D8 | %67
 D6 B,2 | C4 D4- | D8 | F8 | E4 D4- | D4 C4 | D8 | z8 | F8 | G8 | A8 | G4 c4 | B4 A4- | A4 G4 | %81
 A8 | E4 F4 | G8 | F4 E4- | E4 E4- | E2 D2 D4- | D4 E4 | C8 | z4 F4- | F2 E2 E4- | E4 D4 | E8 |] %93
V:2
 (3:2:2B8 c4 | d6 c2 | A8 | D4 E4 | A4 A4- | A4 G4 | A4 B4 | c4 A4- | A4 D4- | D4 d4 | c4 B4 | A8 | %12
 z4 B4 | c8 | A8 | z4 G4 | A4 B4 | c8 | z4 B4 | B8 | A8 | B4 c4 | A8 | G4 D4- | D4 B4 | A6 B2 | %26
 c6 B2 | G8 | C8 | F8 | z4 c4- | c8 | c4 G4- | G4 F4 | G4 A4- | A4 B2 c2 | d4 c4 | B4 c4- | %38
 c2 B2 B4- | B4 A4 | B8 | A8 | c8 | B8 | z4 c4 | A8- | A8 | d6 c2 | A8 | B8 | c4 d4- | d2 c2 B4- | %52
 B4 A4 | B4 d4 | c2 B2 A2 G2 | B8 | z8 | c8 | B4 A4- | A8 | F4 A4 | B4 c4 | A6 G2 | B8 | z8 | c8 | %66
 B4 A4- | A2 F2 G4- | G4 A4- | A8 | A4 z4 | B4 A4- | A4 G4 | A8- | A8 | D8 | G4 C4- | C8 | C4 c4 | %79
 d4 A4 | E8 | F4 C4- | C4 z4 | d4 B4 | c8 | B8 | A8 | z4 B4 | c8 | c4 d4- | d2 c2 B4- | B4 A4 | %92
 B8 |] %93
V:3
 E8 | D8- | D8 | A4 G4 | F4 D4 | E8 | D8 | C4 D4- | D2 E2 F4- | F4 D4 | A4 G4 | F8 | E8 | C8 | %14
 D8- | D4 E4 | F4 G4 | A8- | A4 G4 | E8 | F8 | D4 C4 | F8 | G4 A4- | A4 G4 | F6 E2 | C8- | C8 | %28
 c8- | c8 | A4 F4- | F4 C4- | C8 | C4 D4 | E4 F4- | F4 E4 | D4 A4 | G4 A4- | A4 G4 | F8 | E8 | F8 | %42
 E8 | z4 G4- | G4 A4 | F8- | F8 | D8 | F8 | z4 E4- | E4 D4- | D4 E4 | F8 | E4 D4 | E4 F4 | G8 | %56
 A8- | A8 | G4 F4- | F4 G4 | A4 F4 | G4 A4 | F8 | E8 | z8 | A8 | G4 F4 | D4 E4- | E4 F4- | F4 D4- | %70
 D4 G4- | G4 F4 | E8 | D8- | D8 | A8 | B4 c4- | c8 | c4 A4 | G4 c4 | B8 | A4 c4- | c4 d4 | B4 G4 | %84
 A8 | G8 | F8 | G8 | z4 A4 | F4 D4 | A4 G4 | F8 | E8 |] %93

